X:1
T:Title
%%score { 1 | 2 }
L:1/8
M:3/4
K:D
V:1 treble nm="Grand Piano"
V:2 bass 
V:1
 z2 z2[Q:1/4=100] D>F | [FA]3 [FA] [GB]>[FA] | [FA]2 F2 D>D | [CE]3 [DF] [EG][FA] |[M:2/4] F4 | %5
[M:1/4] A>A |[M:3/4] [Fd]3 [Fd] [Ac]>[GB] | [FA]2 F2 D>D | [CE]3 [CA] [CG][K:bass][G,CE] | %9
[M:2/4] [F,D]4 |[M:1/4][K:treble] [A,FA]>[A,FA] |[M:3/4] [Fd]3 [Fd] [Ac]>[GB] | %12
 [FA]2 [DF]2 [FA][FA] | [DGB]3 [DGd] [DFA][A,DF] |[M:2/4] [A,CE]4 |[M:1/4] [GA]>[GA] | %16
[M:3/4] [Fd]3 [Fd] [Ac]>[GB] | [FA]2 F2 A>A | [CA]3 [CA] [CG][CE] |[M:2/4] D4 |] %20
V:2
 z2 z2 [D,F,]>[D,A,D] | [D,D]3 [D,D] [D,D]>[D,D] | [D,D]2 [D,A,D]2 [D,F,]>[D,F,] | %3
 [A,,A,]3 [A,,A,] [A,,A,][A,,A,] |[M:2/4] [D,A,D]4 |[M:1/4] A,>A, | %6
[M:3/4] [D,A,]3 [D,A,] [D,D]>[D,D] | [D,D]2 [D,A,D]2 [D,F,]>[D,F,] | [A,,A,]3 [A,,G,] [A,,E,]A,, | %9
[M:2/4] D,4 |[M:1/4] D,>D, |[M:3/4] [D,A,]3 [D,A,] [D,D]>[D,D] | [D,D]2 [D,A,]2 [D,D][D,D] | %13
 G,,3 B,, D,D, |[M:2/4] A,,4 |[M:1/4] A,>A, |[M:3/4] [D,A,]3 [D,A,] [D,D]>[D,D] | %17
 [D,D]2 [D,A,D]2 [D,F,D]>[D,F,D] | [A,,E,]3 [A,,E,] [A,,A,][A,,G,] |[M:2/4] [D,F,]4 |] %20

